svg/device/print_fill.svg

<?xml version="1.0" encoding="UTF-8"?>
<svg width="24px" height="24px" viewBox="0 0 24 24" version="1.1" xmlns="http://www.w3.org/2000/svg" xmlns:xlink="http://www.w3.org/1999/xlink">
    <title>print_fill</title>
    <g id="页面-1" stroke="none" stroke-width="1" fill="none" fill-rule="evenodd">
        <g id="Device" transform="translate(-576.000000, -48.000000)" fill-rule="nonzero">
            <g id="print_fill" transform="translate(576.000000, 48.000000)">
                 <path d="M24,0 L24,24 L0,24 L0,0 L24,0 Z M12.5934901,23.257841 L12.5819402,23.2595131 L12.5108777,23.2950439 L12.4918791,23.2987469 L12.4918791,23.2987469 L12.4767152,23.2950439 L12.4056548,23.2595131 C12.3958229,23.2563662 12.3870493,23.2590235 12.3821421,23.2649074 L12.3780323,23.275831 L12.360941,23.7031097 L12.3658947,23.7234994 L12.3769048,23.7357139 L12.4804777,23.8096931 L12.4953491,23.8136134 L12.4953491,23.8136134 L12.5071152,23.8096931 L12.6106902,23.7357139 L12.6232938,23.7196733 L12.6232938,23.7196733 L12.6266527,23.7031097 L12.609561,23.275831 C12.6075724,23.2657013 12.6010112,23.2592993 12.5934901,23.257841 L12.5934901,23.257841 Z M12.8583906,23.1452862 L12.8445485,23.1473072 L12.6598443,23.2396597 L12.6498822,23.2499052 L12.6498822,23.2499052 L12.6471943,23.2611114 L12.6650943,23.6906389 L12.6699349,23.7034178 L12.6699349,23.7034178 L12.678386,23.7104931 L12.8793402,23.8032389 C12.8914285,23.8068999 12.9022333,23.8029875 12.9078286,23.7952264 L12.9118235,23.7811639 L12.8776777,23.1665331 C12.8752882,23.1545897 12.8674102,23.1470016 12.8583906,23.1452862 L12.8583906,23.1452862 Z M12.1430473,23.1473072 C12.1332178,23.1423925 12.1221763,23.1452606 12.1156365,23.1525954 L12.1099173,23.1665331 L12.0757714,23.7811639 C12.0751323,23.7926639 12.0828099,23.8018602 12.0926481,23.8045676 L12.108256,23.8032389 L12.3092106,23.7104931 L12.3186497,23.7024347 L12.3186497,23.7024347 L12.3225043,23.6906389 L12.340401,23.2611114 L12.337245,23.2485176 L12.337245,23.2485176 L12.3277531,23.2396597 L12.1430473,23.1473072 Z" id="MingCute" fill-rule="nonzero"></path>
                <path d="M16,16 C16.51285,16 16.9355092,16.386027 16.9932725,16.8833761 L17,17 L17,21 C17,21.51285 16.613973,21.9355092 16.1166239,21.9932725 L16,22 L8,22 C7.48716857,22 7.06449347,21.613973 7.0067278,21.1166239 L7,21 L7,17 C7,16.48715 7.38604429,16.0644908 7.88337975,16.0067275 L8,16 L16,16 Z M19,7 C20.6569,7 22,8.34315 22,10 L22,17 C22,18.1046 21.1046,19 20,19 L19,19 L19,16 C19,14.8954 18.1046,14 17,14 L7,14 C5.89543,14 5,14.8954 5,16 L5,19 L4,19 C2.89543,19 2,18.1046 2,17 L2,10 C2,8.34315 3.34315,7 5,7 L19,7 Z M17,9 L15,9 C14.4477,9 14,9.44772 14,10 C14,10.51285 14.386027,10.9355092 14.8833761,10.9932725 L15,11 L17,11 C17.5523,11 18,10.5523 18,10 C18,9.48716857 17.613973,9.06449347 17.1166239,9.0067278 L17,9 Z M17,2 C17.5523,2 18,2.44772 18,3 L18,5 L6,5 L6,3 C6,2.44772 6.44772,2 7,2 L17,2 Z" id="形状" fill="#09244B"></path>
            </g>
        </g>
    </g>
</svg>

<svg xmlns="http://www.w3.org/2000/svg" width="24" height="24"><g fill="none" fill-rule="nonzero"><path d="M24 0v24H0V0h24ZM12.593 23.258l-.011.002-.071.035-.02.004-.014-.004-.071-.035c-.01-.004-.019-.001-.024.005l-.004.01-.017.428.005.02.01.013.104.074.015.004.012-.004.104-.074.012-.016.004-.017-.017-.427c-.002-.01-.009-.017-.017-.018Zm.265-.113-.013.002-.185.093-.01.01-.003.011.018.43.005.012.008.007.201.093c.012.004.023 0 .029-.008l.004-.014-.034-.614c-.003-.012-.01-.02-.02-.022Zm-.715.002a.023.023 0 0 0-.027.006l-.006.014-.034.614c0 .012.007.02.017.024l.015-.002.201-.093.01-.008.004-.011.017-.43-.003-.012-.01-.01-.184-.092Z"/><path fill="#09244B" d="M16 16a1 1 0 0 1 .993.883L17 17v4a1 1 0 0 1-.883.993L16 22H8a1 1 0 0 1-.993-.883L7 21v-4a1 1 0 0 1 .883-.993L8 16h8Zm3-9a3 3 0 0 1 3 3v7a2 2 0 0 1-2 2h-1v-3a2 2 0 0 0-2-2H7a2 2 0 0 0-2 2v3H4a2 2 0 0 1-2-2v-7a3 3 0 0 1 3-3h14Zm-2 2h-2a1 1 0 0 0-.117 1.993L15 11h2a1 1 0 0 0 .117-1.993L17 9Zm0-7a1 1 0 0 1 1 1v2H6V3a1 1 0 0 1 1-1h10Z"/></g></svg>
